packages/core/src/svgs/tokens/branded/BADGER.svg

<svg width="24" height="24" viewBox="0 0 24 24" fill="none" xmlns="http://www.w3.org/2000/svg">
<path d="M5.33325 15.5945V14.5501L18.6666 14.3889V15.5945H18.111V16.1667H17.5554V16.7223H17V17.1889H16.4444V17.7444H15.8888V18.2778H8.11103V17.7444H7.55548V17.1889H6.99992V16.7167H6.44437V16.1611H5.88882V15.5945H5.33325Z" fill="#0C0B11"/>
<path d="M17 3.11112H6.99997V2.55555H6.44441V2H5.3333V2.55555H4.22219V5.33333H4.77774V6.99999H4.22219V8.11111H3.66664V9.77774H3.11108V12H3.66664V13.1112H4.22219V13.6666H4.77774V14.2222H5.3333V14.7778H5.88886V15.3333H6.44441V15.8889H6.99997V16.4445H7.55552V17H8.11107V18.6667H15.8888V17H16.4444V16.4445H17V15.8889H17.5555V15.3333H18.1111V14.7778H18.6666V14.2222H19.2221V13.6666H19.7777V13.1112H20.3333V12H20.8889V9.77774H20.3333V8.11111H19.7777V6.99999H19.2221V5.56666H19.7721L19.7777 3.48888V2.55555H18.6666V2H17.5555V2.55555H17V3.11112Z" fill="#EDECE8"/>
<path d="M15.333 2.55557H8.66636V3.11114H8.11081V3.66669H6.44415V3.11114H5.33303V3.66669H4.22192V5.8889H4.77748V7.00001L5.33303 7.00002V7.55557H5.8886V10.3334H6.44415V12H6.9997V14.2222H7.55525V15.3333H8.11081V16.4445H8.66636V18.7555L9.77743 20.8889H10.333V21.4444H10.8886V22H13.1108V21.4444H13.6663V20.8889H14.2219L15.333 18.6667V16.4445H15.8885V15.3333H16.4441V14.2222H16.9997V12H17.5552V10.3389H18.1108V7.55557H18.6664V7.00002L19.2218 7.00001V5.8889H19.7774V3.66669H18.6664V3.17225H17.5552V3.66669H15.8885V3.11114H15.333V2.55557Z" fill="#0C0B11"/>
<path d="M14.2223 2.55557H9.77781V3.66669H10.3334V4.22224H9.77781V5.33335H10.3334V6.44446H9.77781V12.5556H10.3334V15.3333H9.77781V18.1111H9.2223V18.6667H8.66675V19.7778H9.2223V20.8889H9.77781V19.2222H10.3334V18.6667H13.6667V19.2222H14.2223V20.8889H14.7779V19.7778H15.3333V18.6667H14.7779V18.1111H14.2223V15.3333H13.6667V12.5556H14.2223V6.44446H13.6667V5.33335H14.2223V4.22224H13.6667V3.66669H14.2223V2.55557Z" fill="#EDECE8"/>
<path d="M9.22183 13.1112H8.1274V13.6889H7.55518V14.7778H8.1274V15.3333H9.22183V14.7778H9.77735V13.6889H9.22183V13.1112ZM15.8885 13.1112H14.794V13.6889H14.2218V14.7778H14.794V15.3333H15.8885V14.7778H16.4441V13.6889H15.8885V13.1112Z" fill="black"/>
<path d="M8.11084 13.6666H8.66639V14.2222H8.11084V13.6666ZM14.7775 13.6666H15.333V14.2222H14.7775V13.6666Z" fill="white"/>
</svg>

<svg xmlns="http://www.w3.org/2000/svg" width="24" height="24" fill="none" viewBox="0 0 24 24">
    <path fill="#0C0B11" d="M5.333 15.595V14.55l13.334-.161v1.206h-.556v.572h-.556v.555H17v.467h-.556v.555h-.555v.534H8.11v-.534h-.556v-.555H7v-.472h-.556v-.556H5.89v-.567z"/>
    <path fill="#EDECE8" d="M17 3.111H7v-.555h-.556V2h-1.11v.556H4.221v2.777h.556V7h-.556v1.111h-.555v1.667H3.11V12h.556v1.111h.555v.556h.556v.555h.555v.556h.556v.555h.555v.556H7v.556h.556V17h.555v1.667h7.778V17h.555v-.555H17v-.556h.555v-.556h.556v-.555h.556v-.556h.555v-.555h.556v-.556h.555V12h.556V9.778h-.556V8.11h-.555V7h-.556V5.567h.55l.006-2.078v-.933h-1.111V2h-1.112v.556H17z"/>
    <path fill="#0C0B11" d="M15.333 2.556H8.666v.555h-.555v.556H6.444V3.11H5.333v.556H4.222v2.222h.555V7h.556v.556h.556v2.777h.555V12H7v2.222h.555v1.111h.556v1.112h.555v2.31l1.111 2.134h.556v.555h.556V22h2.222v-.556h.555v-.555h.556l1.111-2.222v-2.222h.556v-1.112h.555v-1.11H17V12h.555v-1.661h.556V7.556h.555V7h.556V5.889h.555V3.667h-1.11v-.495h-1.112v.495H15.89V3.11h-.556z"/>
    <path fill="#EDECE8" d="M14.222 2.556H9.778v1.11h.555v.556h-.555v1.111h.555v1.111h-.555v6.112h.555v2.777h-.555v2.778h-.556v.556h-.555v1.11h.555v1.112h.556v-1.667h.555v-.555h3.334v.555h.555v1.667h.556v-1.111h.555v-1.111h-.555v-.556h-.556v-2.778h-.555v-2.777h.555V6.444h-.555v-1.11h.555V4.221h-.555v-.555h.555z"/>
    <path fill="#000" d="M9.222 13.111H8.127v.578h-.572v1.089h.572v.555h1.095v-.555h.555v-1.09h-.555zm6.667 0h-1.095v.578h-.572v1.089h.572v.555h1.095v-.555h.555v-1.09h-.555z"/>
    <path fill="#fff" d="M8.11 13.667h.556v.555h-.555zm6.668 0h.555v.555h-.556z"/>
</svg>
